svg/key_alert.svg

<svg xmlns="http://www.w3.org/2000/svg" viewBox="0 0 24 24"><path d="M4 6.5C4 4 6 2 8.5 2S13 4 13 6.5c0 1.96-1.25 3.63-3 4.24V15h3v3h-3v4H7V10.74c-1.75-.61-3-2.28-3-4.24m3 0C7 7.33 7.67 8 8.5 8S10 7.33 10 6.5 9.33 5 8.5 5 7 5.67 7 6.5M18 7h2v6h-2m0 4h2v-2h-2"/></svg>

<svg xmlns="http://www.w3.org/2000/svg" id="mdi-key-alert" viewBox="0 0 24 24"><path d="M4 6.5C4 4 6 2 8.5 2S13 4 13 6.5C13 8.46 11.75 10.13 10 10.74V15H13V18H10V22H7V10.74C5.25 10.13 4 8.46 4 6.5M7 6.5C7 7.33 7.67 8 8.5 8S10 7.33 10 6.5 9.33 5 8.5 5 7 5.67 7 6.5M18 7H20V13H18M18 17H20V15H18" /></svg>
